!!!Melodie: wachet auf, ruft uns die Stimme
!!!Typ: Lied
**kern	**silbe	**silbe	**silbe	**silbe	**silbe
*clefG2	*lang:DE	*lang:DE	*lang:DE	*lang:DE	*lang:DE
2c	Ei#	Nicht	O	Sieh	Hei#
2e	#ner	wir	Herr	auf	#land,
2.g	ist’s,	ha#	Je#	dei#	dei#
4g	an	#ben	#su,	#ne	#ne
4g	dem	dich	Eh#	Mil#	grö#
4g	wir	er#	#ren#	#li#	#ßten
(4a	hang#	#wäh#	#kö#	#o#	Din#
4g	|	|	|	|	|
2a)	|	|	|	|	|
2g	#en,	#let,	#nig,	#nen,	#ge
4r	%	%	%	%	%
=	=	=	=	=	=
4g	der	du	die	die	be#
4cc	für	selbst	Ernt’	noch	#gin#
4g	uns	hast	ist	im	#est
4cc	in	uns’#	groß,	To#	du
4ee	den	#re	der	#des#	still
4dd	Tod	Zahl	Schnit#	#schat#	und
4ee	ge#	ge#	#ter	#ten	ge#
2dd	#gang#	#zäh#	we#	woh#	#rin#
2g	#en,	#let,	#nig,	#nen,	#ge.
4r	%	%	%	%	%
=	=	=	=	=	=
4g	und	nach	d’rum	von	Was
4cc	uns	dei#	sen#	dei#	sind
4g	er#	#nem	#de	#nem	wir
4a	#kauft	ew’#	treu#	Him#	Ar#
4e	mit	#gen	#e	#mel#	#me,
4f	sei#	Gna#	Zeu#	#rei#	Herr,
4d	#nem	#den#	#gen	#che	vor
2c	Blut.	#rat;	aus.	fern.	dir?
2r	%	%	%	%	%
=	=	=	=	=	=
2c	Uns’#	uns’#	Send	Seit	A#
2e	#re	#re	auch	Jahr#	#ber
2.g	Lei#	Kraft	uns	#tau#	du
4g	#ber,	ist	hi#	#sen#	wirst
4g	uns’#	schwach	#naus	#den	für
4g	#re	und	in	ist	uns
(4a	Her#	nich#	Gna#	ih#	strei#
4g	|	|	|	|	|
2a)	|	|	|	|	|
2g	#zen	#tig,	#den,	#nen	#ten,
4r	%	%	%	%	%
=	=	=	=	=	=
4g	ge#	und	viel’	kein	und
4cc	#hö#	kei#	fro#	E#	uns
4g	#ren	#ner	#he	#van#	mit
4cc	dir,	ist	Gäs#	#ge#	dei#
4ee	o	zum	#te	#li#	#nen
4dd	Mann	Wer#	ein#	#um	Au#
4ee	der	#ke	#zu#	er#	#gen
2dd	Schmer#	tüch#	#la#	#schie#	lei#
2g	#zen;	#tig,	#den	#nen,	#ten;
4r	%	%	%	%	%
=	=	=	=	=	=
4g	in	der	zum	kein	auf
4cc	dei#	nicht	Mahl	gna#	dei#
4g	#ner	von	in	#den#	#ne
4a	Lie#	dir	dei#	#rei#	Kraft
4g	#be	die	#nes	#cher	ver#
4f	ruht	Stär#	Va#	Mor#	#trau#
4d	sich’s	#ke	#ters	#gen#	#en
2c	gut.	hat.	Haus.	#stern.	wir.
4r	%	%	%	%	%
=	=	=	=	=	=
4g	Nimm	D’rum	Wohl	Glanz	Dein
2.g	uns	brich	dem,	der	Senf#
4f	zum	den	den	Ge#	#korn,
4e	Ei#	eig’#	dei#	#rech#	arm
4d	#gen#	#nen	#ne	#tig#	und
2c	#tum,	Sinn,	Wahl	#keit,	klein,
4r	%	%	%	%	%
=	=	=	=	=	=
4g	be#	denn	be#	geh	wächst
2.g	#rei#	Ar#	#ruft	auf,	oh#
4f	#te	#mut	zum	denn	#ne
4e	dir	ist	A#	es	gro#
4d	zum	Ge#	#bend#	ist	#ßen
2c	Ruhm	#winn	#mahl	Zeit!	Schein
4d	dei#	für	im	Komm,	doch
4e	#ne	den	Reich	Herr	zum
2f	Kin#	Him#	Got#	Je#	Bau#
2e	#der.	#mel;	#tes!	#su,	#me,
=	=	=	=	=	=
2g	Ver#	wer	Da	Zieh	weil
4a	#birg	in	ruht	uns	du,
4b	uns	sich	der	vo#	Herr
2cc	nicht	schwach,	Streit,	#ran,	Christ,
4cc	das	folgt,	da	und	sein
4ee	Gna#	Herr,	währt’	mach	Hü#
2dd	#den#	dir	die	uns	#ter
2cc	#licht	nach,	Freud’	Bahn,	bist,
=	=	=	=	=	=
2g	von	und	heut’,	gib	dem
4cc	dei#	trägt	ges#	dei#	es
4g	#nem	mit	#tern	#ne	von
4a	heil'#	Eh#	und	Tü#	Gott
4e	#gen	#ren	in	#ren	ver#
4f	An#	dei#	E#	auf#	#trau#
4d	#ge#	#ne	#wig#	#ge#	#et
1c	#gsicht.	Schmach.	#keit.	#tan.	ist.
==	==	==	==	==	==
*-	*-	*-	*-	*-	*-
